X: 661
T: Ae Fond Kiss
R: waltz
M: 3/4
K: Dmajor
V:1
"D":F4 F2|"F#m"A4 B2|"G"D4 A2|"G"B2 "D"d4|
V:2
D4 D2|c6|B4 D2|G2 F4|
V:1
"G,"B4 B2|d4 B2|"A"A4 E2|"D7"F2 A4|
V:2
G6|B4 D2|c6|d2 c2 A2|
V:1
"G"G2 GA B2|d4 D2|"B#"D4 A2|"G"B2 d4|
V:2
B4 G2|B4 B2|B4 F2|G2 B4|
V:1
"D"F4 E2|"B#m"F4 B2|"F#m"A4 F2|"A"E6|F6||
V:2
D4 c2|B4 D2|c6|c6|d6||

